public/svg/layout/kitsu-full.svg

<svg width="800" height="224" viewBox="0 0 800 224" xmlns="http://www.w3.org/2000/svg"><g fill="none" fill-rule="evenodd"><g fill="#EDF0F1"><path d="M785.6 43.8c-9 0-14.4 6.4-14.4 14.4v83c0 11.4-6.9 20.6-20.6 20.6-13.6 0-20.6-9.2-20.6-20.6v-83c0-7.9-5.4-14.4-14.4-14.4s-14.4 6.4-14.4 14.4v83.1h.1c1 25.8 17.7 46.3 49.3 46.3 31.6 0 48.2-20.5 49.3-46.3h.1V58.2c0-7.9-5.4-14.4-14.4-14.4zM656.3 118.2C646.1 107.9 623 98 617 90.8c-3.7-4.1-4.2-10.4-.9-15.1 2-2.8 5-4.5 8.1-5.1 5.6-1 11.3-.2 15.8 1.6 5.9 2.3 10.2 5.7 14.8 6 4.2.3 8.5-1.5 11.2-5.3 3.4-4.9 2.8-11.5-1.1-15.7-11.1-13.3-33.9-14.6-45.1-12.8-11 1.8-21.6 7.2-28.2 16.6-10.9 15.5-8.8 36.3 3.5 49.7 9.3 10.6 23.4 16 34.2 22.9 2.3 1.5 5.2 3.6 6.7 5.2 4.6 4.7 5.3 12.1 1.5 17.6-2 2.8-4.8 4.6-7.8 5.4-2.8.8-6.3 1-8.4.9-9.3-.2-19.1-6.6-21.9-7.8-5.2-2.3-11.5-.7-14.9 4.2-2.9 4.1-2.8 9.2-.5 13.3 1.4 2.5 4 5.5 7.4 7.7 16.8 11.2 36.5 9.3 47.6 6.4 8.9-2.4 17.3-7.2 23-15.7 11.5-16.6 8.8-39.1-5.7-52.6zM550.2 45.8h-74.5c-7.2 0-13.1 4.2-13.1 13.1 0 8.9 5.9 13.1 13.1 13.1h23v101.2c0 7.9 4.6 14.4 14.4 14.4 9.7 0 14.4-6.4 14.4-14.4V72h22.7c7.2 0 13.1-4.2 13.1-13.1 0-8.8-5.8-13.1-13.1-13.1zM420.4 43.8c-9 0-14.4 6.4-14.4 14.4v115c0 7.9 4.6 14.4 14.4 14.4 9.7 0 14.4-6.4 14.4-14.4v-115c0-7.9-5.4-14.4-14.4-14.4zM370.5 166.6l-31.4-60.2c23.3-28.1 26.7-44.7 27.1-47.2.1-.7.2-1.5.2-2.3 0-7.2-5.8-13-13-13-5 0-9.3 2.9-11.9 6.9-2.5 4-7.1 15-20.8 34.1-8.3 11.5-17.4 20.9-20.7 24.2V58.3c0-7.9-5.4-14.4-14.4-14.4s-14.4 6.4-14.4 14.4v115c0 7.9 4.6 14.4 14.4 14.4 9.7 0 14.4-6.4 14.4-14.4v-27.8c3.1-3 10-9.6 17.7-17.6l27.1 52.1c3.7 7.1 11.9 9.3 19.4 6.6 7.6-3 10-13 6.3-20z"/></g><g fill="#E75E45"><path d="M152.7 48.5c-6.8-2.5-14.1-4.1-21.8-4.4-12.7-.6-24.8 2.2-35.4 7.6-.6.3-1.3.6-2 1v36.4c0 .5 0 2.4-.3 4-.7 3.7-2.9 7-6 9.1-2.6 1.8-5.6 2.6-8.8 2.5-.6 0-1.3-.1-1.9-.2-1.6-.3-3.3-.9-3.8-1.1-1.4-.5-21.8-8.4-31.6-12.2-1.2-.5-2.2-.9-3-1.2-11.7 9.9-24 21.7-35.5 35.6-.1.1-.6.7-.7.8-1.5 2.1-1.6 5.1 0 7.4 1.2 1.7 3.1 2.7 5 2.8 1.3.1 2.7-.3 3.9-1.1.1-.1.2-.2.4-.3 12.2-8.8 25.6-15.9 39.8-21.6 1-.5 2.2-.8 3.3-.7 1.6.1 3.1.7 4.3 1.9 2.3 2.3 2.4 6 .5 8.5-.8 1.2-1.5 2.4-2.2 3.6-7.6 12.4-13.7 25.9-18.3 40-.1.4-.2.7-.3 1.1v.1c-.4 1.7-.1 3.5 1 5 1.2 1.7 3.1 2.7 5.1 2.8 1.4.1 2.7-.3 3.9-1.1.5-.4 1-.8 1.4-1.3.1-.2.3-.4.4-.6 5-7.1 10.5-13.8 16.4-20 26.3-28.2 61.2-48.1 100.3-55.9.3-.1.6-.1.9-.1 2.2.1 3.9 2 3.8 4.2-.1 1.9-1.4 3.3-3.2 3.7-36.3 7.7-101.7 50.8-78.8 113.4.4 1 .7 1.6 1.2 2.5 1.2 1.7 3.1 2.7 5 2.8 1.1 0 4.2-.3 6.1-3.7 3.7-7 10.7-14.8 30.9-23.2 56.3-23.3 65.6-56.6 66.6-77.7v-1.2c.9-31.4-18.6-58.8-46.6-69.2zm-56.5 165C91 198 91.5 183 97.6 168.7c11.7 18.9 32.1 20.5 32.1 20.5-20.9 8.7-29.1 17.3-33.5 24.3z"/><path d="M1.1 50.6c.1.2.3.4.4.5 5.3 7.2 11.3 13.5 17.8 19.1.1.1.2.1.2.2 4.2 3.6 12.2 8.8 18 10.9 0 0 36.1 13.9 38 14.7.7.3 1.7.6 2.2.7 1.6.3 3.3 0 4.8-1s2.4-2.5 2.7-4.1c.1-.6.2-1.6.2-2.3V48.5c.1-6.2-1.9-15.6-3.7-20.8 0-.1-.1-.2-.1-.3-2.8-8.1-6.6-16-11.4-23.5l-.3-.6-.1-.1c-2-2.8-6-3.5-8.9-1.5-.5.3-.8.7-1.2 1.1-.3.4-.5.7-.8 1.1-6.4 9.3-9 20.6-7.3 31.7-3.3 1.7-6.8 4-7.2 4.3-.4.3-3.9 2.7-6.6 5.2-9.7-5.5-21.3-7.2-32.2-4.6-.4.1-.9.2-1.3.3-.5.2-1 .4-1.4.7-2.9 2-3.7 5.9-1.8 8.9v.2zm63.5-40.1c3.4 5.7 6.3 11.6 8.6 17.8-4.6.8-9.1 2-13.5 3.6-.6-7.5 1.1-14.9 4.9-21.4zM31.5 51.3c-3.2 3.5-5.9 7.3-8.3 11.3-4.9-4.3-9.4-9.2-13.5-14.4 7.5-1.3 15-.2 21.8 3.1z"/></g></g></svg>

<?xml version="1.0" encoding="UTF-8"?>
<svg width="800px" height="224px" viewBox="0 0 800 224" version="1.1" xmlns="http://www.w3.org/2000/svg" xmlns:xlink="http://www.w3.org/1999/xlink">
    <defs></defs>
    <g stroke="none" stroke-width="1" fill="none" fill-rule="evenodd">
        <g>
            <g>
                <g transform="translate(271.000000, 43.000000)" fill="#EDF0F1">
                    <path d="M514.6,0.8 C505.6,0.8 500.2,7.2 500.2,15.2 L500.2,98.2 C500.2,109.6 493.3,118.8 479.6,118.8 C466,118.8 459,109.6 459,98.2 L459,15.2 C459,7.3 453.6,0.8 444.6,0.8 C435.6,0.8 430.2,7.2 430.2,15.2 L430.2,98.3 L430.3,98.3 C431.3,124.1 448,144.6 479.6,144.6 C511.2,144.6 527.8,124.1 528.9,98.3 L529,98.3 L529,15.2 C529,7.3 523.6,0.8 514.6,0.8 Z" id="Shape"></path>
                    <path d="M385.3,75.2 L385.3,75.2 C375.1,64.9 352,55 346,47.8 C342.3,43.7 341.8,37.4 345.1,32.7 C347.1,29.9 350.1,28.2 353.2,27.6 C358.8,26.6 364.5,27.4 369,29.2 C374.9,31.5 379.2,34.9 383.8,35.2 L383.8,35.2 C388,35.5 392.3,33.7 395,29.9 C398.4,25 397.8,18.4 393.9,14.2 C382.8,0.9 360,-0.4 348.8,1.4 C337.8,3.2 327.2,8.6 320.6,18 C309.7,33.5 311.8,54.3 324.1,67.7 C333.4,78.3 347.5,83.7 358.3,90.6 C360.6,92.1 363.5,94.2 365,95.8 C369.6,100.5 370.3,107.9 366.5,113.4 C364.5,116.2 361.7,118 358.7,118.8 C355.9,119.6 352.4,119.8 350.3,119.7 C341,119.5 331.2,113.1 328.4,111.9 C323.2,109.6 316.9,111.2 313.5,116.1 C310.6,120.2 310.7,125.3 313,129.4 C314.4,131.9 317,134.9 320.4,137.1 C337.2,148.3 356.9,146.4 368,143.5 C376.9,141.1 385.3,136.3 391,127.8 C402.5,111.2 399.8,88.7 385.3,75.2 Z" id="Shape"></path>
                    <path d="M279.2,2.8 L204.7,2.8 C197.5,2.8 191.6,7 191.6,15.9 C191.6,24.8 197.5,29 204.7,29 L227.7,29 L227.7,130.2 C227.7,138.1 232.3,144.6 242.1,144.6 C251.8,144.6 256.5,138.2 256.5,130.2 L256.5,29 L279.2,29 C286.4,29 292.3,24.8 292.3,15.9 C292.3,7.1 286.5,2.8 279.2,2.8 Z" id="Shape"></path>
                    <path d="M149.4,0.8 C140.4,0.8 135,7.2 135,15.2 L135,130.2 C135,138.1 139.6,144.6 149.4,144.6 C159.1,144.6 163.8,138.2 163.8,130.2 L163.8,15.2 C163.8,7.3 158.4,0.8 149.4,0.8 Z" id="Shape"></path>
                    <path d="M99.5,123.6 L99.5,123.6 L68.1,63.4 C91.4,35.3 94.8,18.7 95.2,16.2 C95.3,15.5 95.4,14.7 95.4,13.9 C95.4,6.7 89.6,0.9 82.4,0.9 C77.4,0.9 73.1,3.8 70.5,7.8 C68,11.8 63.4,22.8 49.7,41.9 C41.4,53.4 32.3,62.8 29,66.1 L29,15.3 C29,7.4 23.6,0.9 14.6,0.9 C5.6,0.9 0.2,7.3 0.2,15.3 L0.2,130.3 C0.2,138.2 4.8,144.7 14.6,144.7 C24.3,144.7 29,138.3 29,130.3 L29,102.5 C32.1,99.5 39,92.9 46.7,84.9 L73.8,137 L73.8,137 L73.8,137 C77.5,144.1 85.7,146.3 93.2,143.6 C100.8,140.6 103.2,130.6 99.5,123.6 Z" id="Shape"></path>
                </g>
                <g fill="#E75E45">
                    <path d="M152.7,48.5 C145.9,46 138.6,44.4 130.9,44.1 C118.2,43.5 106.1,46.3 95.5,51.7 C94.9,52 94.2,52.3 93.5,52.7 L93.5,54.8 L93.5,89.1 C93.5,89.6 93.5,91.5 93.2,93.1 C92.5,96.8 90.3,100.1 87.2,102.2 C84.6,104 81.6,104.8 78.4,104.7 C77.8,104.7 77.1,104.6 76.5,104.5 C74.9,104.2 73.2,103.6 72.7,103.4 C71.3,102.9 50.9,95 41.1,91.2 C39.9,90.7 38.9,90.3 38.1,90 C26.4,99.9 14.1,111.7 2.6,125.6 C2.5,125.7 2,126.3 1.9,126.4 C0.4,128.5 0.3,131.5 1.9,133.8 C3.1,135.5 5,136.5 6.9,136.6 C8.2,136.7 9.6,136.3 10.8,135.5 C10.9,135.4 11,135.3 11.2,135.2 L11.2,135.2 C23.4,126.4 36.8,119.3 51,113.6 C52,113.1 53.2,112.8 54.3,112.9 C55.9,113 57.4,113.6 58.6,114.8 C60.9,117.1 61,120.8 59.1,123.3 L59.1,123.3 C58.3,124.5 57.6,125.7 56.9,126.9 C49.3,139.3 43.2,152.8 38.6,166.9 C38.5,167.3 38.4,167.6 38.3,168 C38.3,168 38.3,168 38.3,168.1 C37.9,169.8 38.2,171.6 39.3,173.1 C40.5,174.8 42.4,175.8 44.4,175.9 C45.8,176 47.1,175.6 48.3,174.8 C48.8,174.4 49.3,174 49.7,173.5 L49.7,173.5 C49.8,173.3 50,173.1 50.1,172.9 L50.1,172.9 C55.1,165.8 60.6,159.1 66.5,152.9 C92.8,124.7 127.7,104.8 166.8,97 L166.8,97 C167.1,96.9 167.4,96.9 167.7,96.9 C169.9,97 171.6,98.9 171.5,101.1 C171.4,103 170.1,104.4 168.3,104.8 C132,112.5 66.6,155.6 89.5,218.2 C89.9,219.2 90.2,219.8 90.7,220.7 C91.9,222.4 93.8,223.4 95.7,223.5 C96.8,223.5 99.9,223.2 101.8,219.8 C105.5,212.8 112.5,205 132.7,196.6 C189,173.3 198.3,140 199.3,118.9 L199.3,117.7 C200.2,86.3 180.7,58.9 152.7,48.5 Z M96.2,213.5 C91,198 91.5,183 97.6,168.7 C109.3,187.6 129.7,189.2 129.7,189.2 C108.8,197.9 100.6,206.5 96.2,213.5 Z" id="Shape"></path>
                    <path d="M1.1,50.6 C1.2,50.8 1.4,51 1.5,51.1 L1.5,51.1 C6.8,58.3 12.8,64.6 19.3,70.2 C19.4,70.3 19.5,70.3 19.5,70.4 C23.7,74 31.7,79.2 37.5,81.3 C37.5,81.3 73.6,95.2 75.5,96 C76.2,96.3 77.2,96.6 77.7,96.7 C79.3,97 81,96.7 82.5,95.7 C84,94.7 84.9,93.2 85.2,91.6 C85.3,91 85.4,90 85.4,89.3 L85.4,48.5 C85.5,42.3 83.5,32.9 81.7,27.7 C81.7,27.6 81.6,27.5 81.6,27.4 C78.8,19.3 75,11.4 70.2,3.9 L70.2,3.9 C70.1,3.7 70,3.5 69.9,3.3 L69.8,3.2 C67.8,0.4 63.8,-0.3 60.9,1.7 C60.4,2 60.1,2.4 59.7,2.8 L59.7,2.8 C59.4,3.2 59.2,3.5 58.9,3.9 C52.5,13.2 49.9,24.5 51.6,35.6 C48.3,37.3 44.8,39.6 44.4,39.9 L44.4,39.9 L44.4,39.9 C44,40.2 40.5,42.6 37.8,45.1 C28.1,39.6 16.5,37.9 5.6,40.5 C5.2,40.6 4.7,40.7 4.3,40.8 L4.3,40.8 C3.8,41 3.3,41.2 2.9,41.5 C5.10702591e-14,43.5 -0.8,47.4 1.1,50.4 L1.1,50.6 Z M64.6,10.5 C68,16.2 70.9,22.1 73.2,28.3 C68.6,29.1 64.1,30.3 59.7,31.9 C59.1,24.4 60.8,17 64.6,10.5 Z M31.5,51.3 C28.3,54.8 25.6,58.6 23.2,62.6 C18.3,58.3 13.8,53.4 9.7,48.2 C17.2,46.9 24.7,48 31.5,51.3 Z" id="Shape"></path>
                </g>
            </g>
        </g>
    </g>
</svg>
